packages/icons/src/components/Logo/assets/light/drupal.svg

<svg width="20" height="20" viewBox="0 0 20 20" fill="none" xmlns="http://www.w3.org/2000/svg">
<g>
<path d="M13.3029 4.25989C11.8956 2.85325 10.5529 1.51232 10.1533 0C9.75363 1.51232 8.41071 2.85325 7.00363 4.25989C4.89301 6.36918 2.5 8.75974 2.5 12.3452C2.49967 13.3505 2.69739 14.346 3.08187 15.2748C3.46634 16.2037 4.03004 17.0477 4.74077 17.7586C5.45149 18.4696 6.29532 19.0336 7.22405 19.4183C8.15277 19.8031 9.14821 20.0012 10.1535 20.0012C11.1588 20.0012 12.1542 19.8031 13.0829 19.4183C14.0117 19.0336 14.8555 18.4696 15.5662 17.7586C16.2769 17.0477 16.8406 16.2037 17.2251 15.2748C17.6096 14.346 17.8073 13.3505 17.807 12.3452C17.807 8.75997 15.4142 6.36918 13.3029 4.25989V4.25989ZM5.75297 14.1286C5.28369 14.1126 3.55177 11.1274 6.76476 7.94892L8.89093 10.2714C8.90918 10.2894 8.92341 10.3111 8.93267 10.335C8.94194 10.359 8.94604 10.3846 8.9447 10.4102C8.94336 10.4358 8.93661 10.4608 8.92489 10.4837C8.91318 10.5065 8.89677 10.5266 8.87674 10.5426C8.36938 11.063 6.2069 13.2315 5.93811 13.9813C5.88264 14.1361 5.80161 14.1302 5.75296 14.1286H5.75297ZM10.1535 18.063C9.80783 18.063 9.46554 17.9949 9.14618 17.8626C8.82683 17.7303 8.53665 17.5364 8.29222 17.292C8.0478 17.0476 7.85391 16.7574 7.72163 16.4381C7.58935 16.1187 7.52126 15.7764 7.52127 15.4307C7.53099 14.7925 7.763 14.1776 8.17734 13.6921C8.65197 13.1117 10.1531 11.4794 10.1531 11.4794C10.1531 11.4794 11.6313 13.1357 12.1254 13.6866C12.5558 14.165 12.7914 14.7873 12.7857 15.4307C12.7857 16.1289 12.5084 16.7984 12.0148 17.292C11.5211 17.7857 10.8516 18.063 10.1535 18.063V18.063ZM15.1916 13.7944C15.1348 13.9185 15.0062 14.1256 14.8325 14.132C14.5228 14.1432 14.4898 13.9846 14.2609 13.6459C13.7585 12.9024 9.37388 8.31998 8.55377 7.43374C7.83241 6.65426 8.45219 6.10472 8.73969 5.81674C9.10038 5.45541 10.1532 4.40321 10.1532 4.40321C10.1532 4.40321 13.2926 7.3818 14.6003 9.417C15.908 11.4522 15.4573 13.2133 15.1916 13.7944" fill="#009CDE"/>
</g>
<defs>
<clipPath id="clip0_341_660">
<rect width="20" height="20" fill="white"/>
</clipPath>
</defs>
</svg>

<svg xmlns="http://www.w3.org/2000/svg" width="20" height="20" fill="none" viewBox="0 0 20 20">
    <path fill="#009cde" d="M13.303 4.26c-1.407-1.407-2.75-2.748-3.15-4.26-.4 1.512-1.742 2.853-3.15 4.26C4.894 6.37 2.5 8.76 2.5 12.345a7.653 7.653 0 1 0 15.307 0c0-3.585-2.393-5.976-4.504-8.085m-7.55 9.869c-.47-.016-2.201-3.002 1.012-6.18L8.89 10.27a.18.18 0 0 1-.014.272c-.508.52-2.67 2.689-2.939 3.438-.055.155-.136.15-.185.148m4.4 3.934A2.63 2.63 0 0 1 7.52 15.43c.01-.638.242-1.253.656-1.739.475-.58 1.976-2.213 1.976-2.213s1.478 1.657 1.972 2.208c.43.478.666 1.1.66 1.744a2.63 2.63 0 0 1-2.632 2.632m5.039-4.269c-.057.124-.186.332-.36.338-.31.011-.342-.147-.571-.486-.502-.744-4.887-5.326-5.707-6.212-.722-.78-.102-1.33.186-1.617.36-.362 1.413-1.414 1.413-1.414s3.14 2.979 4.447 5.014c1.308 2.035.857 3.796.592 4.377"/>
</svg>
